docs/.gitbook/assets/icon-bell-disabled-16@dark.svg

<svg width="32" height="32" viewBox="0 0 16 16" fill="none" xmlns="http://www.w3.org/2000/svg">
<rect x="0" y="0" width="16" height="16" fill="#181c1f"/>
<path fill-rule="evenodd" clip-rule="evenodd" d="M2.28033 1.21967C1.98744 0.926777 1.51256 0.926777 1.21967 1.21967C0.926777 1.51256 0.926777 1.98744 1.21967 2.28033L3.27436 4.33502L10.7193 11.78L10.72 11.7807L13.7197 14.7803C14.0126 15.0732 14.4874 15.0732 14.7803 14.7803C15.0732 14.4874 15.0732 14.0126 14.7803 13.7197L13.0607 12H14.25C14.488 12 14.7119 11.887 14.8533 11.6956C14.9947 11.5041 15.0368 11.2569 14.9668 11.0294L14 7.88722V7C14 3.68629 11.3137 1 8 1C6.35843 1 4.87039 1.65997 3.78781 2.72715L2.28033 1.21967ZM13.2345 10.5H11.5607L4.84848 3.78782C5.66101 2.99041 6.77292 2.5 8 2.5C10.4853 2.5 12.5 4.51472 12.5 7V8C12.5 8.07476 12.5112 8.14911 12.5332 8.22056L13.2345 10.5ZM3.49996 6.75C3.49996 6.33579 3.16417 6 2.74996 6C2.33574 6 1.99996 6.33579 1.99996 6.75V7.88722L1.03826 11.0127C1.02477 11.0532 1.01463 11.0952 1.00819 11.1385C0.994916 11.226 0.997568 11.3133 1.01433 11.3969C1.0362 11.507 1.08219 11.6085 1.14656 11.6955C1.21078 11.7826 1.29419 11.8564 1.39299 11.9098C1.46801 11.9504 1.55075 11.9787 1.63846 11.9918C1.68165 11.9983 1.72478 12.001 1.76742 12H5.02015C5.02381 12.097 5.02801 12.1928 5.03278 12.2785C5.03837 12.3791 5.04808 12.5503 5.07432 12.666C5.20042 13.2217 5.42151 13.8506 5.96846 14.3199C6.51968 14.7929 7.27764 15 8.24997 15C8.66419 15 8.99997 14.6642 8.99997 14.25C8.99997 13.8358 8.66419 13.5 8.24997 13.5C7.47231 13.5 7.12183 13.3331 6.94527 13.1816C6.76566 13.0275 6.64011 12.7836 6.5392 12.3431L6.53995 12.3462C6.5403 12.3475 6.54053 12.3482 6.54067 12.3482C6.54107 12.3481 6.54056 12.3418 6.53945 12.3279C6.53765 12.3056 6.53425 12.2633 6.53046 12.1952C6.524 12.0791 6.51839 11.9346 6.51377 11.7906C6.50918 11.6475 6.50569 11.5088 6.50334 11.4057L6.50071 11.2822L6.50005 11.2482L6.49989 11.2395L6.49986 11.2382C6.49855 11.1527 6.48294 11.0708 6.45531 10.9945C6.41672 10.8879 6.3547 10.7927 6.27557 10.715C6.14023 10.582 5.95467 10.5 5.74996 10.5H5.74822H2.76542L3.46679 8.22056C3.48878 8.14911 3.49996 8.07476 3.49996 8V6.75Z" fill="#fff"/>
</svg>

<svg xmlns="http://www.w3.org/2000/svg" width="32" height="32" fill="none" viewBox="0 0 16 16"><path fill="#181c1f" d="M0 0h16v16H0z"/><path fill="#fff" fill-rule="evenodd" d="M2.28 1.22a.75.75 0 0 0-1.06 1.06l2.054 2.055 7.445 7.445h.001l3 3a.75.75 0 1 0 1.06-1.06L13.06 12h1.19a.75.75 0 0 0 .717-.97L14 7.886V7A6 6 0 0 0 3.788 2.727zm10.955 9.28H11.56L4.848 3.788A4.5 4.5 0 0 1 12.5 7v1q0 .114.033.22zM3.5 6.75a.75.75 0 0 0-1.5 0v1.137l-.962 3.126a.74.74 0 0 0-.024.384.75.75 0 0 0 .624.595q.066.01.13.008H5.02c.004.097.008.193.013.278.005.101.015.272.041.388.126.556.348 1.185.894 1.654.552.473 1.31.68 2.282.68a.75.75 0 0 0 0-1.5c-.778 0-1.128-.167-1.305-.318-.18-.155-.305-.398-.406-.839l.001.003v.002-.02l-.01-.133a43 43 0 0 1-.027-.79l-.002-.123-.001-.034v-.01a.75.75 0 0 0-.75-.738H2.765l.702-2.28A.8.8 0 0 0 3.5 8z" clip-rule="evenodd"/></svg>
